X:3429
T:Brevduvan
R:Polska
O:Skåne
M:3/4
L:1/16
K:Dm
D3F A2d2 ^cdec|d^cde f6a2|^g2ef e2d2 ^c2ec|d2A2 F2E2 D4-|\
D3F A2d2 ^cdec|d^cde f6a2|^g2ef e2d2 ^c2B2|1A^cec Acec d4:|2A^cec Acec d3A|:\
^f2fg a2f2 a2f2|e2e^f ge^ce gece|
^f2fg afaf ^dBdB|e2e^f gege ^cAcA|d6e2 f2g2|
a3g f2e2 d2^c2|A=B^cd efga bagf|efgf eaA^c d3A:|
(:musicend:)
(:music:)
(:musicend:)
(:music:)
